X:1
T:Title
%%score { 1 | ( 2 3 ) }
L:1/8
Q:1/4=100
M:4/4
K:Bb
V:1 treble nm="Grand Piano"
V:2 bass 
V:3 bass 
V:1
 [DB]>[DA] [DB]>[DA] [Dc]2 [DB]2 | B>A A>_A =A4 | c>=B c>B d2 c2 | [Dc]>[DB] [_DA]>[DG] [=DF]4 | %4
w: Mrs.~J.~I.~McClelland * * * * *||||
 [DB]>[DA] [DB]>[DA] [Dc]2 [DB]2 | [Fd]>[DB] [CA]>[DB] [EG]4 | %6
w: ||
 [Gc]>[Ge] [Gd]>[CGc] [DFB]2 [B,DF]2 |[M:3/4] [C=EG]2 [C_EA]2 [B,DB]2 |[M:1/4] z2 | %9
w: |||
[M:4/4] [DFB]2 [DFB]>[DFB] [DFB]2 [DFA]>[DFB] | [FAc]2 [DFB]2 z2 B>c |[M:2/4] [^Fd]2 [DFd]>[DFd] | %12
w: |||
 [^Fd]2 [DFc]>d |[M:4/4] c2 B2 z2 B2 | [GB]4 [GB]2 [Gc]2 | [Fd]6 [Gc]>[Gc] | B3 B B2 A2 | %17
w: |||||
 [DB]6 z2 |] %18
w: |
V:2
 [B,,F,]>[B,,F,] [B,,F,]>[B,,F,] [B,,F,]2 [B,,B,]2 | [F,CE]>[F,CE] [F,CE]>[F,=B,E] [F,CE]4 | %2
 [F,A,E]>[F,A,E] [F,A,E]>[F,A,E] [F,A,F]2 [F,A,E]2 | [B,,F,]>[B,,F,] [B,,=E,]>[B,,E,] [B,,F,]4 | %4
 [B,,F,]>[B,,F,] [B,,F,]>[B,,F,] [B,,F,]2 [B,,B,]2 | [B,,B,]>[B,,B,] [B,,B,]>[B,,B,] [E,B,]4 | %6
 [E,C]>[C,C] [D,=B,]>E, F,2 F,2 |[M:3/4] C,2 F,2 B,,2 |[M:1/4][K:treble] F>F | %9
[M:4/4][K:bass] [B,,F,]2 [F,,F,]2 [B,,F,]2 [F,,F,]2 | [F,A,E]2 [B,,F,]4 z2 | %11
[M:2/4] [D,A,D]2 [A,,A,]2 | [D,A,D]2 z z/[K:treble] [D^F]/ | %13
[M:4/4] [G,B,DG]2 [G,B,DG]2 z2[K:bass] [G,B,D]2 | [E,E]4 [E,E]2 [E,E]2 | [B,D]6 [E,E]>[E,E] | %16
 [F,DF]3 [F,_D=E] [F,C_E]2 [F,CE]2 | [B,,B,]6 z2 |] %18
V:3
 x8 | x8 | x8 | x8 | x8 | x8 | x8 |[M:3/4] x6 |[M:1/4][K:treble] x2 |[M:4/4][K:bass] x8 | x8 | %11
[M:2/4] x4 | z2 [A,,A,]2[K:treble] |[M:4/4] x6[K:bass] x2 | x8 | x8 | x8 | x8 |] %18

